svgs/duotone/square-arrow-up-right.svg

<svg xmlns="http://www.w3.org/2000/svg" viewBox="0 0 448 512"><!-- Font Awesome Pro 6.0.0-alpha2 by @fontawesome - https://fontawesome.com License - https://fontawesome.com/license (Commercial License) --><defs><style>.fa-secondary{opacity:.4}</style></defs><path d="M384 32H64C28.654 32 0 60.656 0 96V416C0 451.344 28.654 480 64 480H384C419.346 480 448 451.344 448 416V96C448 60.656 419.346 32 384 32ZM344 312C344 329.688 329.688 344 312 344S280 329.688 280 312V245.25L158.625 366.625C152.375 372.875 144.188 376 136 376S119.625 372.875 113.375 366.625C100.875 354.125 100.875 333.875 113.375 321.375L234.75 200H168C150.312 200 136 185.688 136 168S150.312 136 168 136H312C329.688 136 344 150.312 344 168V312Z" class="fa-secondary"/><path d="M344 312C344 329.688 329.687 344 312 344S280 329.688 280 312V245.25L158.625 366.625C152.375 372.875 144.187 376 136 376S119.625 372.875 113.375 366.625C100.875 354.125 100.875 333.875 113.375 321.375L234.75 200H168C150.312 200 136 185.688 136 168S150.312 136 168 136H312C329.687 136 344 150.312 344 168V312Z" class="fa-primary"/></svg>

<svg xmlns="http://www.w3.org/2000/svg" viewBox="0 0 448 512"><!--! Font Awesome Pro 6.3.0 by @fontawesome - https://fontawesome.com License - https://fontawesome.com/license (Commercial License) Copyright 2023 Fonticons, Inc. --><defs><style>.fa-secondary{opacity:.4}</style></defs><path class="fa-primary" d="M344 312c0 17.69-14.31 32-32 32s-32-14.31-32-32V245.3l-121.4 121.4C152.4 372.9 144.2 376 136 376s-16.38-3.125-22.62-9.375c-12.5-12.5-12.5-32.75 0-45.25L234.8 200H168c-17.69 0-32-14.31-32-32s14.31-32 32-32h144c17.69 0 32 14.31 32 32V312z"/><path class="fa-secondary" d="M384 32H64C28.65 32 0 60.66 0 96v320c0 35.34 28.65 64 64 64h320c35.35 0 64-28.66 64-64V96C448 60.66 419.3 32 384 32zM344 312c0 17.69-14.31 32-32 32s-32-14.31-32-32V245.3l-121.4 121.4C152.4 372.9 144.2 376 136 376s-16.38-3.125-22.62-9.375c-12.5-12.5-12.5-32.75 0-45.25L234.8 200H168c-17.69 0-32-14.31-32-32s14.31-32 32-32h144c17.69 0 32 14.31 32 32V312z"/></svg>
